X: 811
T: Gelmedin Bir Kerreden Maadâ...
C: Fehmi Tokay
O: Turkey
F: http://compmusic.upf.edu/node/140
N: ussak--sarki--musemmen--gelmedin_bir--fehmi_tokay
N: makam= ussak
N: form= sarki
N: usul= musemmen = 8/8
M: 8/8
L: 1/16
K: C _2/4B   
Q: 1/4=132
%%MIDI tuningsystem comma53
G2A2 A2Ac BcA6  | agfe d2e2 c2d6  | c2d2 e2^f2 g2ag =fed2  | 
w:  ARANAĞME  |   |   | 
fed2 e2dc BAB6  | c4 cBcB BAA6  | B4 ABdc BAG6  | 
w:   |   |   | 
f2e2 d2c2 B2c4d2  | dcB2 BAA8z2  | G2A2 A2Ac BcA6  | 
w:   |   |  ARANAĞME  | 
agfe d2e2 c2d6  | c2d2 e2^f2 g2ag =fed2  | \
w:   |   | 
fed2 e2dc BAB6  | 
w:   | 
c4 cBcB BAA6  | B4 ABdc BAG6  | f2e2 d2c2 B2c4d2  | 
w:   |   |   | 
dcB2 BAA8z2  | G4 A2A4A6  | A4 c2B3AG6  | \
w:   |  Gel me din  bir   |  ker re den  *  maa  | 
dcB2 c2d4c2 B2A2  | 
w:  dâ  *  *  ne den   SAZ  | 
G4 A2A4A6  | A4 c2B3AG6  | dcB2 c2d4GA Bcd2  | \
w:  Gel me din  bir   |  ker re den  *  maa  |  dâ  *  *  ne den   SAZ  | 
c4 d2e3dd6  | 
w:  Baş ka  hiç *  bir   | 
c2B2 c2B2 {c}BAA6  | BAG2 ^3/4A2_1/4B8z2  | \
w:  şey *  le  gön *  *  *  lüm   |  dol *  *  mu yor    | 
c2B2 c2B2 {c}BAA6  | G2A2 B2c2 dcBA G4  | 
w:  Baş *  ka  hiç *  *  *  bir   |  şey *  le  gön *  *  lüm   | 
c2B2 BAA8z2  | e4 ^f2g4g6  | ^f2e2 g2f3ed4z2  | \
w:  dol *  mu *  yor    |  Ra zı yım  rü  |  ya *  da  gör *  sem   | 
ede2 ^f2g8-g2  | 
w:  gel *  *  me sen    | 
g4 a2a4a6  | g^fe2 g2f3ed6  | dcB2 c2d8-d2  | \
w:  Aşk  ya nan  göz  |  ler *  *  de  gün  *  hiç  |  sol *  *  mu yor    | 
c4 d2e3dd6  | 
w:  Baş ka  hiç *  bir   | 
c2B2 c2B2 {c}BAA6  | BAG2 ^3/4A2_1/4B8z2  | \
w:  şey *  le  gön *  *  *  lüm   |  dol *  *  mu yor    | 
c2B2 c2B2 {c}BAA6  | G2A2 B2c2 dcBA G4  | 
w:  Baş *  ka  hiç *  *  *  bir   |  şey *  le  gön *  *  lüm   | 
c2B2 BAA8z2  | |


